X:1
T: The Night Cap
C:
R:Jig
Q:180
K:A
M:6/8
L:1/16
|:c4c2 c2B2c2|A4E2 E4C2|A,2C2E2 A4c2|B4e2 e4d2|
c4c2 c2B2c2|A4E2 E4A2|F2B2A2 G2c2B2|A6-A4e2|
e4c2 c2d2e2|f4a2 a6|e4c2 c2B2A2|G2B2A2 G2F2E2|
e4c2 c2d2e2|f4a2 a6|e2f2e2 d2c2B2|A6-A4z2:|
